X: 17496
T: Hills Of Glenorchy, The
R: jig
M: 6/8
K: Edorian
|:d/c/|B2E EFE|BAB d2B|A2D DED|FDF Adc|
B2E EFE|BAB d2e|dBd AFD|EFE E2:|
|:B|efe edB|efg f2e|ded dAF|dcd fed|
efe edB|efg f2e|dBd AFD|EFE E2:|

